X:03
T: Father O'Flynn
S: Scott Minter to CoMandoList TOW 2008
Z: http://www.thesession.org/tunes/display/1080
Z: edited for standard repeats by Wendy Anthony
M: 6/8
L: 1/8
R: jig
K: Dmaj
d|:dAF DFA|Bed cBA|dcd ede|faf ecA|
dAF DFA|Bed cBA|dcd ede|1 fdd d2d:|2 fdd d2g|
|:fdf fga|ece efe|dcd fed|cAA A2=c|
BGB Bcd|AFA ABc|dcd efg|1 fdd d2g:|2 fdd d2 ||
